X: 1
T: Walking In My Sleep
C: Greg Hooven, tribute to Fred Cockerham
R: reel
Z: 2020 John Chambers <jc:trillian.mit.edu>
S: https://www.facebook.com/groups/Fiddletuneoftheday/ 2020-8-14
S: https://www.facebook.com/groups/Fiddletuneoftheday/photos/
M: C|
L: 1/8
K: G
GE |:\
"G"DGED EFG2 | B3c B3A | BABc dcB2 | "D"A3B A3F- |
FAB2 ABd2 | f3a f3e | fafe dBA2 |[1 "G"G3A G2GE :|[2 "G"G3A G3f |
|:\
"G"[gB]agf gagf | [g3B3]a g3f | gag2 edB2 | "D"[A3F3]B A3f- |
fgaf agfg | a3b a3f- | fafe dBAG |[1 "G"[B3G3][cG] [B3G3]f : "G"[B3G3][cG] [B4G4] |]
